X:1
T:RVW2/1/44 Adieu My Lovely Nancy-0
T:RVW2/1/44 Adieu My Lovely Nancy-0
T:Sung by Mr. Harmon of Bassingbourne, July 30th 1907 (2 of 2)
T:Transcribed by Simon Furey and Lewis Jones
C:Transcribed by Simon Furey and Lewis Jones
L:1/8
Q:1/4=100
M:4/4
K:A
V:1 treble 
V:1
 ^E2 d2 a2 ug2 g2 e2 c2 e2 a2 ag | f2 e2 cB A2 | B6 :| e2 | f3 g a2 f2 | (e2 a2) A2 e2 | %6
 ed B2 A2 G2 | A6 |] %8

